;FLAVOR:Marlin
;TIME:6054
;Filament used: 5.05647m
;Layer height: 0.2
;MINX:59.009
;MINY:59.009
;MINZ:0.2
;MAXX:160.992
;MAXY:160.991
;MAXZ:5
;Generated with Cura_SteamEngine 4.12.0
M140 S60
M105
M190 S60
M104 S200
M105
M109 S200
M82 ;absolute extrusion mode
; Ender 3 Custom Start G-code
G92 E0 ; Reset Extruder
G28 ; Home all axes
G1 Z2.0 F3000 ; Move Z Axis up little to prevent scratching of Heat Bed
G1 X0.1 Y20 Z0.3 F5000.0 ; Move to start position
G1 X0.1 Y200.0 Z0.3 F1500.0 E15 ; Draw the first line
G1 X0.4 Y200.0 Z0.3 F5000.0 ; Move to side a little
G1 X0.4 Y20 Z0.3 F1500.0 E30 ; Draw the second line
G92 E0 ; Reset Extruder
G1 Z2.0 F3000 ; Move Z Axis up little to prevent scratching of Heat Bed
G1 X5 Y20 Z0.3 F5000.0 ; Move over to prevent blob squish
G92 E0
G92 E0
G1 F1500 E-6.5
;LAYER_COUNT:25
;LAYER:0
M107
G0 F6000 X73.634 Y74.25 Z0.2
;TYPE:SKIRT
G1 F1500 E0
G1 F1200 X74.315 Y73.571 E0.03199
G1 X74.509 Y73.383 E0.04097
G1 X75.258 Y72.672 E0.07532
G1 X75.48 Y72.467 E0.08537
G1 X76.346 Y71.689 E0.12409
G1 X76.566 Y71.497 E0.1338
G1 X77.246 Y70.918 E0.16351
G1 X77.452 Y70.746 E0.17243
G1 X78.395 Y69.982 E0.2128
G1 X78.635 Y69.793 E0.22296
G1 X79.376 Y69.226 E0.25399
G1 X79.593 Y69.064 E0.263
G1 X80.512 Y68.396 E0.30079
G1 X80.768 Y68.216 E0.31119
G1 X81.522 Y67.7 E0.34158
G1 X81.74 Y67.554 E0.35031
G1 X82.708 Y66.925 E0.38871
G1 X82.963 Y66.765 E0.39872
G1 X83.841 Y66.228 E0.43295
G1 X84.079 Y66.087 E0.44215
G1 X84.988 Y65.562 E0.47706
G1 X85.246 Y65.417 E0.48691
G1 X86.124 Y64.941 E0.52013
G1 X86.383 Y64.805 E0.52986
G1 X87.351 Y64.313 E0.56597
G1 X87.599 Y64.191 E0.57516
G1 X88.555 Y63.735 E0.61039
G1 X88.819 Y63.613 E0.62007
G1 X89.727 Y63.209 E0.65312
G1 X90.002 Y63.091 E0.66307
G1 X91.034 Y62.665 E0.70021
G1 X91.293 Y62.562 E0.70948
G1 X92.245 Y62.197 E0.74339
G1 X92.513 Y62.098 E0.75289
G1 X93.485 Y61.754 E0.78718
G1 X93.764 Y61.66 E0.79698
G1 X94.767 Y61.335 E0.83204
G1 X95.038 Y61.251 E0.84148
G1 X96.032 Y60.957 E0.87596
G1 X96.308 Y60.879 E0.8855
G1 X97.343 Y60.602 E0.92113
G1 X97.634 Y60.528 E0.93112
G1 X98.619 Y60.293 E0.9648
G1 X98.883 Y60.234 E0.9738
G1 X99.95 Y60.007 E1.01008
G1 X100.235 Y59.95 E1.01975
G1 X101.201 Y59.771 E1.05242
G1 X101.49 Y59.721 E1.06218
G1 X102.618 Y59.543 E1.10016
G1 X102.905 Y59.502 E1.1098
G1 X103.875 Y59.375 E1.14234
G1 X104.158 Y59.342 E1.15182
G1 X105.238 Y59.229 E1.18793
G1 X105.526 Y59.202 E1.19755
G1 X106.511 Y59.125 E1.23042
G1 X106.803 Y59.107 E1.24015
G1 X107.911 Y59.05 E1.27705
G1 X108.187 Y59.039 E1.28623
G1 X109.175 Y59.013 E1.31911
G1 X109.474 Y59.009 E1.32905
G1 X110.582 Y59.01 E1.3659
G1 X110.867 Y59.014 E1.37538
G1 X111.873 Y59.041 E1.40886
G1 X112.155 Y59.052 E1.41824
G1 X113.222 Y59.108 E1.45378
G1 X113.513 Y59.127 E1.46348
G1 X114.536 Y59.208 E1.49761
G1 X114.822 Y59.235 E1.50717
G1 X115.903 Y59.349 E1.54332
G1 X116.183 Y59.382 E1.5527
G1 X117.164 Y59.511 E1.58561
G1 X117.459 Y59.554 E1.59552
G1 X118.552 Y59.728 E1.63233
G1 X118.835 Y59.777 E1.64188
G1 X119.813 Y59.959 E1.67497
G1 X120.097 Y60.015 E1.6846
G1 X121.137 Y60.237 E1.71997
G1 X121.408 Y60.299 E1.72922
G1 X122.429 Y60.544 E1.76414
G1 X122.713 Y60.616 E1.77388
G1 X123.749 Y60.894 E1.80956
G1 X124.031 Y60.974 E1.81931
G1 X125.007 Y61.264 E1.85317
G1 X125.28 Y61.349 E1.86268
G1 X126.278 Y61.674 E1.89759
G1 X126.554 Y61.767 E1.90728
G1 X127.545 Y62.119 E1.94226
G1 X127.817 Y62.22 E1.95191
G1 X128.788 Y62.594 E1.98652
G1 X129.05 Y62.699 E1.9959
G1 X130.009 Y63.097 E2.03044
G1 X130.265 Y63.207 E2.03971
G1 X131.256 Y63.648 E2.07578
G1 X131.522 Y63.771 E2.08553
G1 X132.448 Y64.213 E2.11966
G1 X132.711 Y64.342 E2.1294
G1 X133.626 Y64.809 E2.16357
G1 X133.867 Y64.936 E2.17263
G1 X134.806 Y65.445 E2.20815
G1 X135.076 Y65.597 E2.21846
G1 X136 Y66.132 E2.25397
G1 X136.243 Y66.276 E2.26337
G1 X137.095 Y66.799 E2.29662
G1 X137.333 Y66.95 E2.30599
G1 X138.258 Y67.551 E2.34268
G1 X138.504 Y67.715 E2.35251
G1 X139.278 Y68.248 E2.38377
G1 X139.51 Y68.413 E2.39324
G1 X140.486 Y69.123 E2.43338
G1 X140.722 Y69.3 E2.44319
G1 X141.433 Y69.847 E2.47303
G1 X141.649 Y70.017 E2.48217
G1 X142.559 Y70.754 E2.52112
G1 X142.781 Y70.939 E2.53073
G1 X143.509 Y71.561 E2.56258
G1 X143.732 Y71.756 E2.57243
G1 X144.518 Y72.465 E2.60764
G1 X144.72 Y72.652 E2.6168
G1 X145.515 Y73.406 E2.65324
G1 X145.729 Y73.615 E2.66319
G1 X146.414 Y74.301 E2.69543
G1 X146.6 Y74.492 E2.7043
G1 X147.341 Y75.271 E2.74006
G1 X147.553 Y75.5 E2.75044
G1 X148.262 Y76.289 E2.78572
G1 X148.446 Y76.499 E2.795
G1 X149.076 Y77.237 E2.82728
G1 X149.255 Y77.451 E2.83656
G1 X149.979 Y78.344 E2.87479
G1 X150.169 Y78.586 E2.88503
G1 X150.779 Y79.383 E2.91841
G1 X150.937 Y79.595 E2.9272
G1 X151.566 Y80.459 E2.96275
G1 X151.743 Y80.71 E2.97296
G1 X152.32 Y81.551 E3.00688
G1 X152.468 Y81.771 E3.0157
G1 X153.045 Y82.657 E3.05087
G1 X153.21 Y82.92 E3.0612
G1 X153.741 Y83.788 E3.09504
G1 X153.884 Y84.028 E3.10433
G1 X154.418 Y84.953 E3.13986
G1 X154.557 Y85.2 E3.14928
G1 X155.063 Y86.131 E3.18453
G1 X155.203 Y86.398 E3.19455
G1 X155.683 Y87.342 E3.22978
G1 X155.802 Y87.584 E3.23875
G1 X156.237 Y88.494 E3.27229
G1 X156.364 Y88.768 E3.28234
G1 X156.807 Y89.764 E3.31859
G1 X156.922 Y90.032 E3.32829
G1 X157.311 Y90.973 E3.36216
G1 X157.412 Y91.226 E3.37122
G1 X157.779 Y92.18 E3.40522
G1 X157.878 Y92.447 E3.41469
G1 X158.252 Y93.5 E3.45186
G1 X158.349 Y93.786 E3.4619
G1 X158.657 Y94.735 E3.49508
G1 X158.741 Y95.008 E3.50459
G1 X159.043 Y96.028 E3.53997
G1 X159.121 Y96.305 E3.54954
G1 X159.38 Y97.272 E3.58283
G1 X159.453 Y97.559 E3.59268
G1 X159.708 Y98.625 E3.62914
G1 X159.767 Y98.886 E3.63804
G1 X159.987 Y99.916 E3.67307
G1 X160.047 Y100.214 E3.68318
G1 X160.233 Y101.22 E3.71721
G1 X160.281 Y101.5 E3.72666
G1 X160.449 Y102.561 E3.76238
G1 X160.489 Y102.837 E3.77166
G1 X160.621 Y103.834 E3.80511
G1 X160.656 Y104.128 E3.81496
G1 X160.765 Y105.165 E3.84964
G1 X160.791 Y105.455 E3.85932
G1 X160.877 Y106.552 E3.89592
G1 X160.896 Y106.846 E3.90572
G1 X160.949 Y107.875 E3.93999
G1 X160.96 Y108.151 E3.94918
G1 X160.987 Y109.174 E3.98321
G1 X160.991 Y109.454 E3.99253
G1 X160.992 Y110.514 E4.02778
G1 X160.988 Y110.816 E4.03783
G1 X160.961 Y111.834 E4.0717
G1 X160.95 Y112.117 E4.08112
G1 X160.895 Y113.168 E4.11612
G1 X160.877 Y113.447 E4.12542
G1 X160.792 Y114.539 E4.16185
G1 X160.765 Y114.836 E4.17177
G1 X160.656 Y115.872 E4.20642
G1 X160.621 Y116.163 E4.21617
G1 X160.489 Y117.161 E4.24965
G1 X160.448 Y117.441 E4.25906
G1 X160.28 Y118.501 E4.29476
G1 X160.233 Y118.777 E4.30407
G1 X160.047 Y119.784 E4.33813
G1 X159.989 Y120.076 E4.34803
G1 X159.77 Y121.105 E4.38302
G1 X159.708 Y121.379 E4.39237
G1 X159.452 Y122.447 E4.42889
G1 X159.379 Y122.734 E4.43874
G1 X159.12 Y123.699 E4.47198
G1 X159.044 Y123.968 E4.48127
G1 X158.742 Y124.989 E4.51669
G1 X158.656 Y125.268 E4.5264
G1 X158.348 Y126.216 E4.55955
G1 X158.253 Y126.496 E4.56938
G1 X157.879 Y127.55 E4.60658
G1 X157.781 Y127.815 E4.61598
G1 X157.415 Y128.768 E4.64993
G1 X157.307 Y129.037 E4.65957
G1 X156.916 Y129.98 E4.69353
G1 X156.806 Y130.236 E4.70279
G1 X156.364 Y131.23 E4.73898
G1 X156.239 Y131.501 E4.7489
G1 X155.804 Y132.412 E4.78248
G1 X155.681 Y132.662 E4.79175
G1 X155.201 Y133.605 E4.82694
G1 X155.069 Y133.855 E4.83634
G1 X154.564 Y134.787 E4.8716
G1 X154.418 Y135.05 E4.8816
G1 X153.883 Y135.976 E4.91717
G1 X153.736 Y136.223 E4.92673
G1 X153.205 Y137.089 E4.96052
G1 X153.052 Y137.33 E4.97002
G1 X152.476 Y138.217 E5.00519
G1 X152.313 Y138.461 E5.01495
G1 X151.735 Y139.301 E5.04886
G1 X151.573 Y139.53 E5.05819
G1 X150.944 Y140.396 E5.09379
G1 X150.771 Y140.628 E5.10342
G1 X150.161 Y141.423 E5.13675
G1 X149.987 Y141.644 E5.1461
G1 X149.264 Y142.538 E5.18434
G1 X149.072 Y142.769 E5.19434
G1 X148.441 Y143.507 E5.22663
G1 X148.253 Y143.721 E5.2361
G1 X147.563 Y144.487 E5.27039
G1 X147.376 Y144.69 E5.27957
G1 X146.585 Y145.525 E5.31783
G1 X146.366 Y145.75 E5.32827
G1 X145.685 Y146.429 E5.36026
G1 X145.491 Y146.617 E5.36924
G1 X144.742 Y147.328 E5.40359
G1 X144.52 Y147.533 E5.41364
G1 X143.654 Y148.311 E5.45236
G1 X143.434 Y148.503 E5.46207
G1 X142.754 Y149.082 E5.49178
G1 X142.548 Y149.254 E5.5007
G1 X141.605 Y150.018 E5.54107
G1 X141.365 Y150.207 E5.55123
G1 X140.624 Y150.774 E5.58226
G1 X140.407 Y150.936 E5.59127
G1 X139.488 Y151.604 E5.62906
G1 X139.232 Y151.784 E5.63947
G1 X138.478 Y152.3 E5.66986
G1 X138.26 Y152.446 E5.67858
G1 X137.292 Y153.075 E5.71698
G1 X137.037 Y153.235 E5.72699
G1 X136.159 Y153.772 E5.76122
G1 X135.921 Y153.913 E5.77042
G1 X135.012 Y154.438 E5.80534
G1 X134.754 Y154.583 E5.81518
G1 X133.876 Y155.059 E5.8484
G1 X133.617 Y155.195 E5.85813
G1 X132.649 Y155.687 E5.89424
G1 X132.401 Y155.809 E5.90344
G1 X131.445 Y156.265 E5.93866
G1 X131.181 Y156.387 E5.94834
G1 X130.273 Y156.791 E5.98139
G1 X129.998 Y156.909 E5.99134
G1 X128.966 Y157.335 E6.02848
G1 X128.707 Y157.438 E6.03775
G1 X127.755 Y157.803 E6.07166
G1 X127.487 Y157.902 E6.08116
G1 X126.515 Y158.246 E6.11546
G1 X126.236 Y158.34 E6.12525
G1 X125.233 Y158.665 E6.16032
G1 X124.962 Y158.749 E6.16975
G1 X123.968 Y159.043 E6.20423
G1 X123.692 Y159.121 E6.21377
G1 X122.657 Y159.398 E6.2494
G1 X122.366 Y159.472 E6.25939
G1 X121.381 Y159.707 E6.29307
G1 X121.117 Y159.766 E6.30207
G1 X120.05 Y159.993 E6.33835
G1 X119.765 Y160.05 E6.34802
G1 X118.799 Y160.229 E6.38069
G1 X118.51 Y160.279 E6.39045
G1 X117.382 Y160.457 E6.42843
G1 X117.095 Y160.498 E6.43807
G1 X116.125 Y160.625 E6.47061
G1 X115.842 Y160.658 E6.48009
G1 X114.762 Y160.771 E6.51621
G1 X114.474 Y160.798 E6.52583
G1 X113.489 Y160.875 E6.55869
G1 X113.197 Y160.893 E6.56842
G1 X112.089 Y160.95 E6.60532
G1 X111.813 Y160.961 E6.61451
G1 X110.825 Y160.987 E6.64738
G1 X110.526 Y160.991 E6.65732
G1 X109.418 Y160.99 E6.69418
G1 X109.133 Y160.986 E6.70366
G1 X108.127 Y160.959 E6.73713
G1 X107.845 Y160.948 E6.74651
G1 X106.778 Y160.892 E6.78205
G1 X106.487 Y160.873 E6.79175
G1 X105.464 Y160.792 E6.82588
G1 X105.178 Y160.765 E6.83544
G1 X104.097 Y160.651 E6.87159
G1 X103.817 Y160.618 E6.88097
G1 X102.836 Y160.489 E6.91388
G1 X102.541 Y160.446 E6.92379
G1 X101.448 Y160.272 E6.9606
G1 X101.165 Y160.223 E6.97016
G1 X100.187 Y160.041 E7.00324
G1 X99.903 Y159.985 E7.01287
G1 X98.863 Y159.763 E7.04824
G1 X98.592 Y159.701 E7.05749
G1 X97.571 Y159.456 E7.09241
G1 X97.287 Y159.384 E7.10215
G1 X96.251 Y159.106 E7.13783
G1 X95.969 Y159.026 E7.14758
G1 X94.993 Y158.736 E7.18145
G1 X94.72 Y158.651 E7.19096
G1 X93.722 Y158.326 E7.22586
G1 X93.446 Y158.233 E7.23555
G1 X92.455 Y157.881 E7.27053
G1 X92.183 Y157.78 E7.28018
G1 X91.212 Y157.406 E7.31479
G1 X90.95 Y157.301 E7.32418
G1 X89.991 Y156.903 E7.35871
G1 X89.735 Y156.793 E7.36798
G1 X88.744 Y156.352 E7.40406
G1 X88.478 Y156.229 E7.4138
G1 X87.552 Y155.787 E7.44793
G1 X87.289 Y155.658 E7.45767
G1 X86.374 Y155.191 E7.49184
G1 X86.133 Y155.064 E7.5009
G1 X85.194 Y154.555 E7.53643
G1 X84.924 Y154.403 E7.54673
G1 X84 Y153.868 E7.58224
G1 X83.757 Y153.724 E7.59164
G1 X82.905 Y153.201 E7.62489
G1 X82.667 Y153.05 E7.63426
G1 X81.742 Y152.449 E7.67095
G1 X81.494 Y152.283 E7.68088
G1 X80.719 Y151.749 E7.71218
G1 X80.491 Y151.587 E7.72148
G1 X79.516 Y150.878 E7.76158
G1 X79.278 Y150.7 E7.77147
G1 X78.567 Y150.153 E7.8013
G1 X78.351 Y149.983 E7.81044
G1 X77.441 Y149.246 E7.84939
G1 X77.219 Y149.061 E7.859
G1 X76.491 Y148.439 E7.89085
G1 X76.268 Y148.244 E7.9007
G1 X75.482 Y147.535 E7.93591
G1 X75.28 Y147.348 E7.94507
G1 X74.484 Y146.593 E7.98156
G1 X74.27 Y146.384 E7.99151
G1 X73.586 Y145.699 E8.0237
G1 X73.4 Y145.509 E8.03255
G1 X72.658 Y144.729 E8.06835
G1 X72.446 Y144.499 E8.07876
G1 X71.738 Y143.711 E8.11399
G1 X71.554 Y143.501 E8.12328
G1 X70.924 Y142.763 E8.15555
G1 X70.745 Y142.549 E8.16483
G1 X70.021 Y141.656 E8.20306
G1 X69.831 Y141.414 E8.2133
G1 X69.221 Y140.617 E8.24668
G1 X69.063 Y140.405 E8.25547
G1 X68.434 Y139.541 E8.29102
G1 X68.258 Y139.292 E8.30116
G1 X67.68 Y138.45 E8.33513
G1 X67.53 Y138.225 E8.34412
G1 X66.954 Y137.34 E8.37924
G1 X66.79 Y137.08 E8.38947
G1 X66.259 Y136.212 E8.42331
G1 X66.116 Y135.972 E8.4326
G1 X65.582 Y135.047 E8.46813
G1 X65.445 Y134.803 E8.47744
G1 X64.938 Y133.871 E8.51272
G1 X64.794 Y133.597 E8.52302
G1 X64.315 Y132.654 E8.5582
G1 X64.196 Y132.412 E8.56717
G1 X63.761 Y131.501 E8.60074
G1 X63.638 Y131.235 E8.61049
G1 X63.195 Y130.24 E8.64672
G1 X63.078 Y129.968 E8.65656
G1 X62.689 Y129.027 E8.69043
G1 X62.588 Y128.774 E8.69949
G1 X62.221 Y127.82 E8.73349
G1 X62.121 Y127.55 E8.74307
G1 X61.747 Y126.496 E8.78026
G1 X61.652 Y126.216 E8.7901
G1 X61.344 Y125.268 E8.82325
G1 X61.258 Y124.989 E8.83296
G1 X60.956 Y123.968 E8.86837
G1 X60.879 Y123.697 E8.87774
G1 X60.62 Y122.731 E8.91101
G1 X60.547 Y122.441 E8.92095
G1 X60.292 Y121.375 E8.95741
G1 X60.233 Y121.114 E8.96631
G1 X60.013 Y120.084 E9.00134
G1 X59.953 Y119.784 E9.01152
G1 X59.767 Y118.777 E9.04558
G1 X59.72 Y118.501 E9.05489
G1 X59.552 Y117.441 E9.09058
G1 X59.511 Y117.161 E9.1
G1 X59.379 Y116.163 E9.13348
G1 X59.344 Y115.872 E9.14323
G1 X59.235 Y114.836 E9.17787
G1 X59.209 Y114.544 E9.18763
G1 X59.123 Y113.446 E9.22426
G1 X59.104 Y113.153 E9.23402
G1 X59.051 Y112.125 E9.26826
G1 X59.04 Y111.852 E9.27735
G1 X59.013 Y110.84 E9.31102
G1 X59.009 Y110.547 E9.32076
G1 X59.009 Y109.454 E9.35712
G1 X59.013 Y109.161 E9.36686
G1 X59.04 Y108.148 E9.40057
G1 X59.051 Y107.875 E9.40966
G1 X59.104 Y106.847 E9.44389
G1 X59.123 Y106.554 E9.45366
G1 X59.209 Y105.456 E9.49029
G1 X59.235 Y105.164 E9.50004
G1 X59.344 Y104.128 E9.53469
G1 X59.379 Y103.837 E9.54444
G1 X59.511 Y102.839 E9.57792
G1 X59.552 Y102.559 E9.58733
G1 X59.72 Y101.499 E9.62303
G1 X59.767 Y101.223 E9.63234
G1 X59.953 Y100.216 E9.6664
G1 X60.011 Y99.924 E9.6763
G1 X60.23 Y98.895 E9.71129
G1 X60.292 Y98.621 E9.72063
G1 X60.548 Y97.553 E9.75716
G1 X60.621 Y97.266 E9.76701
G1 X60.88 Y96.301 E9.80024
G1 X60.956 Y96.032 E9.80954
G1 X61.258 Y95.011 E9.84495
G1 X61.344 Y94.732 E9.85466
G1 X61.652 Y93.784 E9.88782
G1 X61.747 Y93.504 E9.89765
G1 X62.121 Y92.45 E9.93485
G1 X62.219 Y92.185 E9.94425
G1 X62.585 Y91.232 E9.9782
G1 X62.693 Y90.963 E9.98784
G1 X63.084 Y90.02 E10.0218
G1 X63.194 Y89.764 E10.03106
G1 X63.636 Y88.77 E10.06724
G1 X63.761 Y88.499 E10.07717
G1 X64.196 Y87.588 E10.11075
G1 X64.319 Y87.338 E10.12001
G1 X64.799 Y86.395 E10.15521
G1 X64.931 Y86.145 E10.16461
G1 X65.436 Y85.213 E10.19987
G1 X65.582 Y84.95 E10.20987
G1 X66.117 Y84.024 E10.24544
G1 X66.264 Y83.777 E10.255
G1 X66.795 Y82.911 E10.28879
G1 X66.948 Y82.67 E10.29828
G1 X67.524 Y81.783 E10.33346
G1 X67.687 Y81.539 E10.34322
G1 X68.265 Y80.699 E10.37713
G1 X68.427 Y80.47 E10.38646
G1 X69.056 Y79.604 E10.42206
G1 X69.229 Y79.372 E10.43169
G1 X69.839 Y78.577 E10.46502
G1 X70.013 Y78.356 E10.47437
G1 X70.736 Y77.462 E10.51261
G1 X70.928 Y77.231 E10.5226
G1 X71.559 Y76.493 E10.5549
G1 X71.747 Y76.279 E10.56437
G1 X72.437 Y75.513 E10.59866
G1 X72.624 Y75.31 E10.60784
G1 X73.415 Y74.475 E10.6461
G1 X73.634 Y74.25 E10.65654
G0 F6000 X73.917 Y74.534
G1 F1200 X74.598 Y73.855 E10.68853
G1 X74.784 Y73.673 E10.69718
G1 X75.533 Y72.962 E10.73153
G1 X75.747 Y72.765 E10.7412
G1 X76.613 Y71.987 E10.77992
G1 X76.825 Y71.801 E10.7893
G1 X77.505 Y71.222 E10.81901
G1 X77.704 Y71.057 E10.82761
G1 X78.647 Y70.293 E10.86797
G1 X78.878 Y70.111 E10.87775
G1 X79.619 Y69.544 E10.90879
G1 X79.829 Y69.388 E10.91749
G1 X80.748 Y68.72 E10.95528
G1 X80.994 Y68.546 E10.9653
G1 X81.748 Y68.03 E10.99569
G1 X81.958 Y67.89 E11.00408
G1 X82.926 Y67.261 E11.04248
G1 X83.171 Y67.106 E11.05212
G1 X84.049 Y66.569 E11.08635
G1 X84.279 Y66.433 E11.09524
G1 X85.188 Y65.908 E11.13015
G1 X85.437 Y65.768 E11.13965
G1 X86.315 Y65.292 E11.17287
G1 X86.564 Y65.162 E11.18221
G1 X87.532 Y64.67 E11.21833
G1 X87.771 Y64.552 E11.22719
G1 X88.727 Y64.096 E11.26242
G1 X88.982 Y63.978 E11.27177
G1 X89.89 Y63.574 E11.30482
G1 X90.154 Y63.461 E11.31437
G1 X91.186 Y63.035 E11.35151
G1 X91.436 Y62.936 E11.36045
G1 X92.388 Y62.571 E11.39436
G1 X92.647 Y62.475 E11.40355
G1 X93.619 Y62.131 E11.43784
G1 X93.888 Y62.04 E11.44729
G1 X94.891 Y61.715 E11.48236
G1 X95.152 Y61.634 E11.49145
G1 X96.146 Y61.34 E11.52592
G1 X96.412 Y61.265 E11.53511
G1 X97.447 Y60.988 E11.57075
G1 X97.727 Y60.917 E11.58036
